svgs/solid/disc-drive.svg

<svg xmlns="http://www.w3.org/2000/svg" viewBox="0 0 512 512"><!-- Font Awesome Pro 6.0.0-alpha2 by @fontawesome - https://fontawesome.com License - https://fontawesome.com/license (Commercial License) --><path d="M496 416H480V96C480 60.625 451.375 32 416 32H96C60.625 32 32 60.625 32 96V416H16C7.125 416 0 423.125 0 432V464C0 472.875 7.125 480 16 480H496C504.875 480 512 472.875 512 464V432C512 423.125 504.875 416 496 416ZM256 416C167.625 416 96 344.375 96 256S167.625 96 256 96S416 167.625 416 256S344.375 416 256 416ZM256 224C238.375 224 224 238.375 224 256S238.375 288 256 288C273.625 288 288 273.625 288 256S273.625 224 256 224Z"/></svg>

<svg xmlns="http://www.w3.org/2000/svg" viewBox="0 0 512 512"><!-- Font Awesome Pro 5.15.1 by @fontawesome - https://fontawesome.com License - https://fontawesome.com/license (Commercial License) --><path d="M496 416h-16V96a64 64 0 0 0-64-64H96a64 64 0 0 0-64 64v320H16a16 16 0 0 0-16 16v32a16 16 0 0 0 16 16h480a16 16 0 0 0 16-16v-32a16 16 0 0 0-16-16zm-240 0a160 160 0 1 1 160-160 160 160 0 0 1-160 160zm0-192a32 32 0 1 0 32 32 32 32 0 0 0-32-32z"/></svg>
